hero/solid/archive-box-x-mark.svg

<svg width="24" height="24" viewBox="0 0 24 24" fill="none" xmlns="http://www.w3.org/2000/svg">
<path d="M3.375 3C2.33947 3 1.5 3.83947 1.5 4.875V5.625C1.5 6.66053 2.33947 7.5 3.375 7.5H20.625C21.6605 7.5 22.5 6.66053 22.5 5.625V4.875C22.5 3.83947 21.6605 3 20.625 3H3.375Z" fill="#0F172A"/>
<path fill-rule="evenodd" clip-rule="evenodd" d="M3.08679 9L3.62657 18.1762C3.71984 19.7619 5.03296 21 6.62139 21H17.3783C18.9667 21 20.2799 19.7619 20.3731 18.1762L20.9129 9H3.08679ZM9.21967 11.8447C9.51256 11.5518 9.98744 11.5518 10.2803 11.8447L12 13.5643L13.7197 11.8447C14.0126 11.5518 14.4874 11.5518 14.7803 11.8447C15.0732 12.1376 15.0732 12.6124 14.7803 12.9053L13.0607 14.625L14.7803 16.3447C15.0732 16.6376 15.0732 17.1124 14.7803 17.4053C14.4874 17.6982 14.0126 17.6982 13.7197 17.4053L12 15.6857L10.2803 17.4053C9.98744 17.6982 9.51256 17.6982 9.21967 17.4053C8.92678 17.1124 8.92678 16.6376 9.21967 16.3447L10.9393 14.625L9.21967 12.9053C8.92678 12.6124 8.92678 12.1376 9.21967 11.8447Z" fill="#0F172A"/>
</svg>

<svg viewBox="0 0 24 24" xmlns="http://www.w3.org/2000/svg"><g><path d="M3.37 3c-1.036 0-1.88.84-1.88 1.875v.75c0 1.03.84 1.875 1.875 1.875h17.25c1.03 0 1.875-.84 1.875-1.875v-.75C22.49 3.835 21.65 3 20.61 3H3.36Z"/><path fill-rule="evenodd" d="M3.08 9l.54 9.17h0c.09 1.58 1.4 2.82 2.99 2.82h10.757v0c1.58 0 2.9-1.24 2.99-2.83l.54-9.18H3.07Zm6.13 2.84H9.2c.29-.3.76-.3 1.06 0l1.72 1.72 1.72-1.72h0c.28-.31.75-.32 1.06-.04 .3.28.31.75.03 1.06 -.02.01-.03.02-.04.03l-1.72 1.72 1.72 1.72h-.001c.3.28.31.75.03 1.06 -.29.3-.76.31-1.06.03 -.02-.02-.03-.03-.04-.04l-1.72-1.72 -1.72 1.72v0c-.29.3-.76.31-1.06.03 -.31-.29-.32-.76-.04-1.06 .01-.02.02-.03.03-.04l1.72-1.72 -1.72-1.72v0c-.3-.3-.3-.77 0-1.06Z"/></g></svg>
